polaris-icons/icons/new-icons/SidebarLeftMajor.svg

<svg width="20" height="20" viewBox="0 0 20 20" fill="none" xmlns="http://www.w3.org/2000/svg">
<path fill-rule="evenodd" clip-rule="evenodd" d="M5.25 16.5C4.2835 16.5 3.5 15.7165 3.5 14.75V5.25C3.5 4.2835 4.2835 3.5 5.25 3.5H6.75C7.7165 3.5 8.5 4.2835 8.5 5.25L8.5 14.75C8.5 15.7165 7.7165 16.5 6.75 16.5H5.25ZM5 14.75C5 14.8881 5.11193 15 5.25 15H6.75C6.88807 15 7 14.8881 7 14.75L7 5.25C7 5.11193 6.88807 5 6.75 5H5.25C5.11193 5 5 5.11193 5 5.25L5 14.75Z" fill="#4A4A4A"/>
<path d="M11.25 16.5C10.2835 16.5 9.5 15.7165 9.5 14.75V14.25C9.5 13.8358 9.83579 13.5 10.25 13.5C10.6642 13.5 11 13.8358 11 14.25V14.75C11 14.8881 11.1119 15 11.25 15H11.75C12.1642 15 12.5 15.3358 12.5 15.75C12.5 16.1642 12.1642 16.5 11.75 16.5H11.25Z" fill="#4A4A4A"/>
<path d="M14.75 16.5C15.7165 16.5 16.5 15.7165 16.5 14.75V14.25C16.5 13.8358 16.1642 13.5 15.75 13.5C15.3358 13.5 15 13.8358 15 14.25V14.75C15 14.8881 14.8881 15 14.75 15H14.25C13.8358 15 13.5 15.3358 13.5 15.75C13.5 16.1642 13.8358 16.5 14.25 16.5H14.75Z" fill="#4A4A4A"/>
<path d="M9.5 5.25C9.5 4.2835 10.2835 3.5 11.25 3.5H11.75C12.1642 3.5 12.5 3.83579 12.5 4.25C12.5 4.66421 12.1642 5 11.75 5H11.25C11.1119 5 11 5.11193 11 5.25V5.75C11 6.16421 10.6642 6.5 10.25 6.5C9.83579 6.5 9.5 6.16421 9.5 5.75V5.25Z" fill="#4A4A4A"/>
<path d="M16.5 5.25C16.5 4.2835 15.7165 3.5 14.75 3.5H14.25C13.8358 3.5 13.5 3.83579 13.5 4.25C13.5 4.66421 13.8358 5 14.25 5H14.75C14.8881 5 15 5.11193 15 5.25V5.75C15 6.16421 15.3358 6.5 15.75 6.5C16.1642 6.5 16.5 6.16421 16.5 5.75V5.25Z" fill="#4A4A4A"/>
<path d="M10.25 8.25C10.6642 8.25 11 8.58579 11 9V11C11 11.4142 10.6642 11.75 10.25 11.75C9.83579 11.75 9.5 11.4142 9.5 11V9C9.5 8.58579 9.83579 8.25 10.25 8.25Z" fill="#4A4A4A"/>
<path d="M16.5 9C16.5 8.58579 16.1642 8.25 15.75 8.25C15.3358 8.25 15 8.58579 15 9V11C15 11.4142 15.3358 11.75 15.75 11.75C16.1642 11.75 16.5 11.4142 16.5 11V9Z" fill="#4A4A4A"/>
</svg>

<svg viewBox="0 0 20 20" xmlns="http://www.w3.org/2000/svg"><path fill-rule="evenodd" d="M5.25 16.5a1.75 1.75 0 0 1-1.75-1.75v-9.5c0-.966.784-1.75 1.75-1.75h1.5c.966 0 1.75.784 1.75 1.75v9.5a1.75 1.75 0 0 1-1.75 1.75h-1.5Zm-.25-1.75c0 .138.112.25.25.25h1.5a.25.25 0 0 0 .25-.25v-9.5a.25.25 0 0 0-.25-.25h-1.5a.25.25 0 0 0-.25.25v9.5Z" fill="#5C5F62"/><path d="M11.25 16.5a1.75 1.75 0 0 1-1.75-1.75v-.5a.75.75 0 0 1 1.5 0v.5c0 .138.112.25.25.25h.5a.75.75 0 0 1 0 1.5h-.5Z" fill="#5C5F62"/><path d="M14.75 16.5a1.75 1.75 0 0 0 1.75-1.75v-.5a.75.75 0 0 0-1.5 0v.5a.25.25 0 0 1-.25.25h-.5a.75.75 0 0 0 0 1.5h.5Z" fill="#5C5F62"/><path d="M9.5 5.25c0-.966.784-1.75 1.75-1.75h.5a.75.75 0 0 1 0 1.5h-.5a.25.25 0 0 0-.25.25v.5a.75.75 0 0 1-1.5 0v-.5Z" fill="#5C5F62"/><path d="M16.5 5.25a1.75 1.75 0 0 0-1.75-1.75h-.5a.75.75 0 0 0 0 1.5h.5a.25.25 0 0 1 .25.25v.5a.75.75 0 0 0 1.5 0v-.5Z" fill="#5C5F62"/><path d="M10.25 8.25a.75.75 0 0 1 .75.75v2a.75.75 0 0 1-1.5 0v-2a.75.75 0 0 1 .75-.75Z" fill="#5C5F62"/><path d="M16.5 9a.75.75 0 0 0-1.5 0v2a.75.75 0 0 0 1.5 0v-2Z" fill="#5C5F62"/></svg>
